Daniel Vartanian/Galaxy Book2 Webcam - Nighttime - 1.cube
# Created by: G'MIC (https://gmic.eu)
TITLE "Galaxy Book2 Webcam - Nighttime - 1"
# LUT size
LUT_3D_SIZE 32
# Data domain
DOMAIN_MIN 0.0 0.0 0.0
DOMAIN_MAX 1.0 1.0 1.0
# LUT data points
0.078639879822731018 0.0555279441177845 0.086031824350357056
0.17394234240055084 0.054588422179222107 0.080870330333709717
0.24514184892177582 0.05289338156580925 0.077951684594154358
0.30511254072189331 0.053180806338787079 0.0737638920545578
0.34677806496620178 0.062124628573656082 0.065630063414573669
0.38160121440887451 0.068197891116142273 0.06854160875082016
0.41496828198432922 0.087255276739597321 0.089838750660419464
0.44756102561950684 0.10229118168354034 0.081022143363952637
0.48130619525909424 0.1195882260799408 0.091775171458721161
0.51370406150817871 0.13235414028167725 0.10184094309806824
0.54063719511032104 0.14757311344146729 0.11657674610614777
0.5620911717414856 0.17032572627067566 0.14597128331661224
0.58492964506149292 0.18948380649089813 0.17333589494228363
0.60888791084289551 0.20069123804569244 0.20253486931324005
0.63321715593338013 0.20994924008846283 0.22627206146717072
0.65472197532653809 0.22505354881286621 0.22933229804039001
0.67484813928604126 0.24163742363452911 0.22915209829807281
0.69486486911773682 0.257892906665802 0.22682973742485046
0.71547293663024902 0.27308845520019531 0.22211302816867828
0.73541092872619629 0.28516513109207153 0.2265007346868515
0.7533566951751709 0.29346910119056702 0.24675446748733521
0.77001363039016724 0.30042156577110291 0.26379144191741943
0.78422349691390991 0.30581927299499512 0.27112531661987305
0.79755973815917969 0.3106020987033844 0.27351325750350952
0.81076622009277344 0.31590458750724792 0.27388250827789307
0.82171690464019775 0.32017338275909424 0.27315226197242737
0.8311997652053833 0.32252836227416992 0.27164682745933533
0.84032785892486572 0.32380259037017822 0.26979532837867737
0.84905886650085449 0.32443791627883911 0.2678314745426178
0.85750347375869751 0.32385504245758057 0.26538169384002686
0.86583799123764038 0.32190188765525818 0.26250925660133362
0.87414276599884033 0.31855952739715576 0.25923299789428711
0.08562074601650238 0.1115129217505455 0.091543473303318024
0.17841140925884247 0.11059220135211945 0.087482847273349762
0.24908114969730377 0.10989207774400711 0.081168606877326965
0.30380704998970032 0.10909686237573624 0.081295698881149292
0.35072481632232666 0.10979727655649185 0.081229314208030701
0.38420793414115906 0.10886435210704803 0.08635411411523819
0.41908448934555054 0.10887059569358826 0.083083830773830414
0.45392966270446777 0.11355354636907578 0.079754970967769623
0.4857909083366394 0.12426959723234177 0.098427623510360718
0.51709675788879395 0.13349160552024841 0.093469753861427307
0.5425141453742981 0.15096485614776611 0.10911859571933746
0.56509482860565186 0.17636224627494812 0.14044760167598724
0.58921730518341064 0.19504128396511078 0.16876822710037231
0.61290580034255981 0.20556308329105377 0.20260000228881836
0.63754898309707642 0.21461355686187744 0.22922989726066589
0.65854686498641968 0.23005808889865875 0.23226748406887054
0.67819207906723022 0.24760556221008301 0.2312602698802948
0.69838482141494751 0.26570835709571838 0.22587445378303528
0.71987175941467285 0.28230965137481689 0.21925164759159088
0.73877191543579102 0.29349929094314575 0.22870917618274689
0.75653034448623657 0.30213558673858643 0.25238451361656189
0.77280300855636597 0.30888700485229492 0.26958265900611877
0.78670108318328857 0.31429550051689148 0.27638953924179077
0.80044341087341309 0.31988206505775452 0.2786557674407959
0.81352406740188599 0.32626667618751526 0.27900266647338867
0.82372915744781494 0.33032488822937012 0.27789276838302612
0.83280003070831299 0.3326755166053772 0.27612015604972839
0.84158086776733398 0.33440786600112915 0.27429831027984619
0.8498496413230896 0.33526122570037842 0.27211979031562805
0.85792189836502075 0.33479112386703491 0.26943561434745789
0.86582964658737183 0.33284103870391846 0.2663312554359436
0.87375450134277344 0.32948410511016846 0.26281610131263733
0.090483389794826508 0.15797249972820282 0.093852579593658447
0.18323327600955963 0.15627864003181458 0.092682026326656342
0.2514861524105072 0.15615846216678619 0.09238191694021225
0.30470180511474609 0.15497882664203644 0.088883534073829651
0.34912174940109253 0.15463580191135406 0.090945564210414886
0.38755464553833008 0.15545649826526642 0.094833850860595703
0.41992390155792236 0.15484054386615753 0.098706312477588654
0.45395955443382263 0.15396714210510254 0.099516309797763824
0.48709961771965027 0.15060330927371979 0.10061915963888168
0.51775777339935303 0.15856838226318359 0.10689928382635117
0.54334408044815063 0.16458755731582642 0.10783715546131134
0.56983315944671631 0.18373854458332062 0.12780019640922546
0.59380638599395752 0.19987428188323975 0.16075120866298676
0.61736476421356201 0.2095797061920166 0.1984393298625946
0.64269924163818359 0.21721678972244263 0.23071475327014923
0.66312563419342041 0.23470638692378998 0.23259133100509644
0.68284469842910767 0.25588205456733704 0.22702406346797943
0.70434457063674927 0.2757364809513092 0.21715880930423737
0.72545766830444336 0.29061141610145569 0.21465812623500824
0.74315762519836426 0.30156353116035461 0.23134274780750275
0.76085168123245239 0.30989617109298706 0.2593158483505249
0.77682435512542725 0.31614893674850464 0.27641654014587402
0.79103696346282959 0.32206529378890991 0.28244239091873169
0.80587762594223022 0.32960695028305054 0.2843300998210907
0.81803864240646362 0.33602839708328247 0.28405016660690308
0.82751035690307617 0.33984112739562988 0.28256535530090332
0.8362920880317688 0.3426346480846405 0.28074881434440613
0.84457719326019287 0.34506857395172119 0.2789638340473175
0.85233378410339355 0.34618812799453735 0.27654933929443359
0.8598029613494873 0.34575483202934265 0.2736811637878418
0.86706960201263428 0.3436991274356842 0.27037245035171509
0.8745802640914917 0.34034031629562378 0.26663112640380859
0.11106763035058975 0.19845949113368988 0.093949228525161743
0.18133024871349335 0.20108596980571747 0.10170228034257889
0.25328925251960754 0.19938381016254425 0.10091327875852585
0.30787795782089233 0.19701103866100311 0.10394041240215302
0.3490900993347168 0.1970561146736145 0.10429391264915466
0.38619384169578552 0.19659420847892761 0.10474992543458939
0.42300820350646973 0.1970302015542984 0.10716200619935989
0.4534752368927002 0.19818510115146637 0.11081469058990479
0.48575383424758911 0.195879265666008 0.11575734615325928
0.51884329319000244 0.1937987208366394 0.11856904625892639
0.54528093338012695 0.19641199707984924 0.12212048470973969
0.57426875829696655 0.19667240977287292 0.12912081182003021
0.59790241718292236 0.2080947607755661 0.14835049211978912
0.62143748998641968 0.21631807088851929 0.18332687020301819
0.64751583337783813 0.22384314239025116 0.22208338975906372
0.66762250661849976 0.24640356004238129 0.21954178810119629
0.6885075569152832 0.26890954375267029 0.21107359230518341
0.71216481924057007 0.28450825810432434 0.20549944043159485
0.73158830404281616 0.29825690388679504 0.21100130677223206
0.74864101409912109 0.30956336855888367 0.2355399876832962
0.76639693975448608 0.31626325845718384 0.26735386252403259
0.78245210647583008 0.32233461737632751 0.28387948870658875
0.79813051223754883 0.33027470111846924 0.28867420554161072
0.81338357925415039 0.33920270204544067 0.28967079520225525
0.82427704334259033 0.34498599171638489 0.28881564736366272
0.8332209587097168 0.34901922941207886 0.2871304452419281
0.84172642230987549 0.3530515730381012 0.28564721345901489
0.84927624464035034 0.35603663325309753 0.28372475504875183
0.85621446371078491 0.35724025964736938 0.28118219971656799
0.86275601387023926 0.35661381483078003 0.27818042039871216
0.86936056613922119 0.35447746515274048 0.27471345663070679
0.8765265941619873 0.35121938586235046 0.27077257633209229
0.16209864616394043 0.23546606302261353 0.13428246974945068
0.19505420327186584 0.23827961087226868 0.13179108500480652
0.25225257873535156 0.24242089688777924 0.10881246626377106
0.30662992596626282 0.24275662004947662 0.11778409034013748
0.35129758715629578 0.23901498317718506 0.11985655128955841
0.38587933778762817 0.23891420662403107 0.11923309415578842
0.42233237624168396 0.23947238922119141 0.12183037400245667
0.4560387134552002 0.23899903893470764 0.12359818816184998
0.48481044173240662 0.24079562723636627 0.12722520530223846
0.51708525419235229 0.2399589866399765 0.13271459937095642
0.54619693756103516 0.23799483478069305 0.1373135894536972
0.57584738731384277 0.23940306901931763 0.14349325001239777
0.59919309616088867 0.23957301676273346 0.14628328382968903
0.62476134300231934 0.2391195148229599 0.1563960462808609
0.65094578266143799 0.24908925592899323 0.177520751953125
0.67191600799560547 0.26549580693244934 0.18884493410587311
0.69630515575408936 0.28012722730636597 0.1932104080915451
0.72066748142242432 0.29161429405212402 0.19356898963451385
0.73827254772186279 0.30656346678733826 0.2096598744392395
0.75543737411499023 0.31637871265411377 0.24082267284393311
0.77328717708587646 0.32150974869728088 0.27563571929931641
0.78995591402053833 0.32924255728721619 0.29059705138206482
0.80804383754730225 0.33950391411781311 0.29383417963981628
0.8224530816078186 0.34784892201423645 0.2942861020565033
0.83230149745941162 0.3534233570098877 0.29314175248146057
0.84108489751815796 0.35891348123550415 0.29177522659301758
0.84885424375534058 0.36418899893760681 0.29063588380813599
0.85520702600479126 0.36723119020462036 0.2886279821395874
0.86091482639312744 0.36817073822021484 0.28607809543609619
0.86655598878860474 0.3674282431602478 0.2830544114112854
0.87269812822341919 0.36548474431037903 0.27955299615859985
0.87962895631790161 0.36255073547363281 0.27553185820579529
0.21313388645648956 0.26946139335632324 0.18871808052062988
0.23665836453437805 0.27483251690864563 0.17672091722488403
0.2663726806640625 0.28284889459609985 0.13527379930019379
0.30973264575004578 0.2865455150604248 0.13674585521221161
0.3476194441318512 0.28595513105392456 0.13376186788082123
0.38640165328979492 0.27734088897705078 0.13875189423561096
0.42255985736846924 0.27891606092453003 0.1334124356508255
0.45507478713989258 0.28013372421264648 0.13707822561264038
0.48801940679550171 0.28023093938827515 0.13980072736740112
0.51564288139343262 0.28051570057868958 0.14473822712898254
0.54524260759353638 0.28119769692420959 0.14792247116565704
0.57747572660446167 0.28037562966346741 0.15033678710460663
0.60249918699264526 0.27988234162330627 0.15591612458229065
0.6240038275718689 0.28246435523033142 0.16200651228427887
0.65161377191543579 0.28267627954483032 0.16298185288906097
0.67719006538391113 0.28568235039710999 0.17001788318157196
0.70523416996002197 0.28720903396606445 0.17527391016483307
0.72848063707351685 0.30003988742828369 0.18608273565769196
0.74617093801498413 0.31492894887924194 0.2089485377073288
0.76350820064544678 0.32299622893333435 0.24545153975486755
0.78026527166366577 0.3309636116027832 0.27854332327842712
0.79895341396331787 0.33956310153007507 0.29297825694084167
0.82012838125228882 0.34851264953613281 0.29756850004196167
0.83300948143005371 0.35595446825027466 0.29799702763557434
0.84235161542892456 0.36284273862838745 0.2969401478767395
0.85080146789550781 0.37042438983917236 0.2964203953742981
0.85684096813201904 0.37571597099304199 0.29545885324478149
0.86160159111022949 0.37841135263442993 0.29366239905357361
0.86623913049697876 0.37932628393173218 0.29139703512191772
0.87137055397033691 0.37904465198516846 0.28872308135032654
0.87722897529602051 0.37777352333068848 0.28560641407966614
0.88386297225952148 0.37536674737930298 0.28177919983863831
0.25429821014404297 0.30142644047737122 0.23327134549617767
0.27276504039764404 0.30627191066741943 0.21185058355331421
0.29030773043632507 0.31131651997566223 0.18079471588134766
0.3090793788433075 0.31906116008758545 0.1724303662776947
0.34219518303871155 0.32491472363471985 0.17441529035568237
0.37968158721923828 0.32305854558944702 0.14619973301887512
0.42277717590332031 0.31954303383827209 0.16315801441669464
0.45432484149932861 0.31911081075668335 0.15559569001197815
0.48785251379013062 0.31971395015716553 0.15128810703754425
0.5177491307258606 0.32106095552444458 0.15638619661331177
0.54407817125320435 0.32202452421188354 0.15841738879680634
0.57531046867370605 0.32076025009155273 0.16162213683128357
0.60291343927383423 0.32075926661491394 0.16321101784706116
0.62634503841400146 0.32065567374229431 0.16798824071884155
0.65074330568313599 0.31940779089927673 0.17176271975040436
0.67749476432800293 0.31987771391868591 0.17384926974773407
0.70417577028274536 0.32221266627311707 0.18500639498233795
0.72952711582183838 0.32153365015983582 0.19681614637374878
0.75485008955001831 0.32474228739738464 0.20807746052742004
0.76997417211532593 0.33722409605979919 0.24201025068759918
0.78759050369262695 0.3452441394329071 0.27263134717941284
0.81034272909164429 0.35209479928016663 0.2922515869140625
0.83295321464538574 0.35868111252784729 0.29922524094581604
0.84487617015838623 0.36670047044754028 0.29993060231208801
0.85393846035003662 0.37614861130714417 0.29959094524383545
0.86049789190292358 0.38342010974884033 0.30001801252365112
0.86456131935119629 0.38789716362953186 0.29969304800033569
0.86828970909118652 0.39070096611976624 0.29897394776344299
0.87246567010879517 0.39236891269683838 0.29798731207847595
0.87725001573562622 0.39281544089317322 0.29624295234680176
0.88283216953277588 0.39191943407058716 0.29341679811477661
0.88927239179611206 0.38973623514175415 0.28947293758392334
0.28116616606712341 0.32841029763221741 0.26249867677688599
0.29707011580467224 0.33152759075164795 0.24012918770313263
0.31175869703292847 0.33670702576637268 0.22431337833404541
0.33273518085479736 0.34410321712493896 0.23205655813217163
0.35598462820053101 0.3529752790927887 0.22437894344329834
0.38893100619316101 0.35266730189323425 0.20717136561870575
0.42427355051040649 0.35383296012878418 0.194057896733284
0.45700865983963013 0.35151958465576172 0.19054560363292694
0.48604521155357361 0.35164281725883484 0.17990723252296448
0.51689028739929199 0.35078096389770508 0.17404235899448395
0.54625505208969116 0.35116586089134216 0.17264802753925323
0.57388919591903687 0.35253307223320007 0.17617399990558624
0.60102087259292603 0.353515625 0.17671586573123932
0.62832844257354736 0.35415998101234436 0.17637130618095398
0.65212589502334595 0.35592460632324219 0.18058440089225769
0.67581605911254883 0.35420939326286316 0.18657618761062622
0.70388823747634888 0.35429832339286804 0.18923929333686829
0.72673112154006958 0.3580377995967865 0.20640088617801666
0.75188511610031128 0.35184744000434875 0.21605342626571655
0.77597182989120483 0.35469222068786621 0.23066887259483337
0.79647082090377808 0.36140093207359314 0.26868221163749695
0.82280981540679932 0.36853063106536865 0.28855973482131958
0.84449106454849243 0.37531769275665283 0.2957359254360199
0.85677862167358398 0.38561928272247314 0.29849019646644592
0.86430299282073975 0.39318767189979553 0.30057436227798462
0.86891555786132812 0.39824631810188293 0.30295756459236145
0.87230944633483887 0.40252575278282166 0.30498912930488586
0.87579876184463501 0.40595617890357971 0.30670624971389771
0.87964248657226562 0.40805557370185852 0.30698063969612122
0.88428902626037598 0.40887898206710815 0.3057672381401062
0.88983595371246338 0.4084765613079071 0.3032328188419342
0.8961912989616394 0.40668138861656189 0.29927408695220947
0.3035489022731781 0.35252699255943298 0.28038281202316284
0.31687349081039429 0.35572582483291626 0.26696285605430603
0.33176875114440918 0.36097872257232666 0.26844322681427002
0.35135838389396667 0.36775141954421997 0.27818557620048523
0.3727429211139679 0.37467101216316223 0.26966953277587891
0.40264081954956055 0.3773021399974823 0.25456872582435608
0.43092429637908936 0.38177382946014404 0.24623295664787292
0.45820185542106628 0.3846290111541748 0.24442030489444733
0.48105993866920471 0.39031219482421875 0.22804667055606842
0.51034098863601685 0.3892553448677063 0.21457552909851074
0.5434192419052124 0.39164522290229797 0.19909559190273285
0.57572203874588013 0.38808733224868774 0.20902067422866821
0.59901303052902222 0.38897836208343506 0.1999613493680954
0.62520462274551392 0.38957220315933228 0.19385644793510437
0.65462154150009155 0.3899570107460022 0.19138173758983612
0.67801886796951294 0.39173328876495361 0.19532012939453125
0.70209282636642456 0.39153885841369629 0.20051877200603485
0.72606867551803589 0.39214292168617249 0.2065175473690033
0.75260138511657715 0.39045271277427673 0.21540366113185883
0.7785414457321167 0.38669928908348083 0.23135897517204285
0.80224752426147461 0.39258357882499695 0.2585197389125824
0.83137297630310059 0.39071843028068542 0.27751067280769348
0.85565835237503052 0.39466273784637451 0.28920811414718628
0.86714202165603638 0.4054887592792511 0.29563573002815247
0.87278711795806885 0.41170030832290649 0.3005281388759613
0.8772425651550293 0.41616684198379517 0.30776670575141907
0.88112139701843262 0.42058572173118591 0.31419816613197327
0.88452577590942383 0.42436319589614868 0.31798544526100159
0.88843345642089844 0.42712110280990601 0.31930804252624512
0.89323556423187256 0.42870217561721802 0.31881269812583923
0.89885151386260986 0.42884272336959839 0.31654399633407593
0.90513879060745239 0.42736753821372986 0.312482088804245
0.32151183485984802 0.37635305523872375 0.2973935604095459
0.3331017792224884 0.37936112284660339 0.29485297203063965
0.34784144163131714 0.3842889666557312 0.30466839671134949
0.3652799129486084 0.3901447057723999 0.31151881814002991
0.38638609647750854 0.39717090129852295 0.30650982260704041
0.41225963830947876 0.40360856056213379 0.2977193295955658
0.43505296111106873 0.4112149178981781 0.29399612545967102
0.45732757449150085 0.4181455671787262 0.27997663617134094
0.47811612486839294 0.42703449726104736 0.25664830207824707
0.50835335254669189 0.42615240812301636 0.25489053130149841
0.54567110538482666 0.42282742261886597 0.25054693222045898
0.57544142007827759 0.42235982418060303 0.25019976496696472
0.59939253330230713 0.42453721165657043 0.24168571829795837
0.62630712985992432 0.42912918329238892 0.21180509030818939
0.6501891016960144 0.43144494295120239 0.20264007151126862
0.67888075113296509 0.42865133285522461 0.20121015608310699
0.70369452238082886 0.42915433645248413 0.20647163689136505
0.7260512113571167 0.42918473482131958 0.2114969938993454
0.75246220827102661 0.43021625280380249 0.22024081647396088
0.78026926517486572 0.43103119730949402 0.23834225535392761
0.80623543262481689 0.43328678607940674 0.2510668933391571
0.83238881826400757 0.42434942722320557 0.27155894041061401
0.85926604270935059 0.42192882299423218 0.28728398680686951
0.87508165836334229 0.42789164185523987 0.29494813084602356
0.88179415464401245 0.43345558643341064 0.30606585741043091
0.8860657811164856 0.43829137086868286 0.31814253330230713
0.89054948091506958 0.44254621863365173 0.32741755247116089
0.89496248960494995 0.44662585854530334 0.33357948064804077
0.8994213342666626 0.44999349117279053 0.33609384298324585
0.90446180105209351 0.45205721259117126 0.33588334918022156
0.91019582748413086 0.45262110233306885 0.33363014459609985
0.91648638248443604 0.45155978202819824 0.32954791188240051
0.33523350954055786 0.39985781908035278 0.31547778844833374
0.34636127948760986 0.40267214179039001 0.31948444247245789
0.3603556752204895 0.4071887731552124 0.3281981348991394
0.37759563326835632 0.41330549120903015 0.33247396349906921
0.39873766899108887 0.42124131321907043 0.32886800169944763
0.41943275928497314 0.42949366569519043 0.3240240216255188
0.43817192316055298 0.43707898259162903 0.31786781549453735
0.45911836624145508 0.4437904953956604 0.30225309729576111
0.48319876194000244 0.45111417770385742 0.29213738441467285
0.51160514354705811 0.45650702714920044 0.29244193434715271
0.54395025968551636 0.45843201875686646 0.29167920351028442
0.57213622331619263 0.46084898710250854 0.28609001636505127
0.59827178716659546 0.45950371026992798 0.27208942174911499
0.62273716926574707 0.46165132522583008 0.24603337049484253
0.64784592390060425 0.46313890814781189 0.2274511456489563
0.67346084117889404 0.4646991491317749 0.22829875349998474
0.70617938041687012 0.46879085898399353 0.2119503915309906
0.72668313980102539 0.46428853273391724 0.22094029188156128
0.75054788589477539 0.46372967958450317 0.22783434391021729
0.77850031852722168 0.46566864848136902 0.24671591818332672
0.80279940366744995 0.46730309724807739 0.26932084560394287
0.82877755165100098 0.46527880430221558 0.29053273797035217
0.85279828310012817 0.46159672737121582 0.30159509181976318
0.87531810998916626 0.45775195956230164 0.31098517775535583
0.88776320219039917 0.45886993408203125 0.3232206404209137
0.89414185285568237 0.46273943781852722 0.3346131443977356
0.89930504560470581 0.46670395135879517 0.34316855669021606
0.90460383892059326 0.47052764892578125 0.34933167695999146
0.91017270088195801 0.47405132651329041 0.35294264554977417
0.91605263948440552 0.47666332125663757 0.35354813933372498
0.92220556735992432 0.47769707441329956 0.35168427228927612
0.92815530300140381 0.47666969895362854 0.34762376546859741
0.34614095091819763 0.42334085702896118 0.33100837469100952
0.35705935955047607 0.42597231268882751 0.33640184998512268
0.37120643258094788 0.43041864037513733 0.34203323721885681
0.3889898955821991 0.43679645657539368 0.34142935276031494
0.40726065635681152 0.44493746757507324 0.33980095386505127
0.42330783605575562 0.45315980911254883 0.3383125364780426
0.44028088450431824 0.46110963821411133 0.33541971445083618
0.46250513195991516 0.46759483218193054 0.32671439647674561
0.48807340860366821 0.47469019889831543 0.322439044713974
0.51565647125244141 0.48234784603118896 0.31997448205947876
0.54505413770675659 0.48732811212539673 0.31725835800170898
0.57202291488647461 0.49058425426483154 0.31166881322860718
0.59734630584716797 0.48833459615707397 0.29855009913444519
0.62374246120452881 0.48949506878852844 0.28402110934257507
0.64919531345367432 0.49107575416564941 0.28034940361976624
0.67381781339645386 0.49806058406829834 0.27260065078735352
0.70131766796112061 0.50099027156829834 0.25300878286361694
0.72594642639160156 0.50392729043960571 0.23833563923835754
0.74928081035614014 0.50067299604415894 0.25275310873985291
0.77717912197113037 0.50336015224456787 0.25764909386634827
0.80130010843276978 0.50302857160568237 0.28038641810417175
0.82390248775482178 0.50147318840026855 0.30648401379585266
0.84582465887069702 0.49834907054901123 0.32112893462181091
0.86821895837783813 0.49253684282302856 0.33082690834999084
0.88598459959030151 0.48949792981147766 0.34284511208534241
0.89811044931411743 0.490224689245224 0.35322970151901245
0.90652728080749512 0.49274066090583801 0.36113777756690979
0.9133649468421936 0.49570959806442261 0.3665749728679657
0.92002350091934204 0.49879550933837891 0.36988946795463562
0.92634576559066772 0.50076228380203247 0.37002402544021606
0.93179744482040405 0.50054776668548584 0.36666944622993469
0.93715530633926392 0.49906095862388611 0.36176910996437073
0.35480174422264099 0.44701269268989563 0.34276899695396423
0.36582577228546143 0.44943758845329285 0.34755873680114746
0.3801216185092926 0.45386260747909546 0.3493841290473938
0.3967519998550415 0.46076479554176331 0.34991544485092163
0.41078773140907288 0.46909043192863464 0.35250914096832275
0.42435893416404724 0.47797021269798279 0.35474655032157898
0.4413827657699585 0.48590907454490662 0.35388323664665222
0.46479448676109314 0.49235805869102478 0.34956318140029907
0.49025410413742065 0.49849086999893188 0.34455797076225281
0.51802724599838257 0.5054168701171875 0.34135401248931885
0.54642868041992188 0.5109633207321167 0.3390144407749176
0.57228457927703857 0.51521176099777222 0.33527898788452148
0.59793692827224731 0.51622253656387329 0.32761490345001221
0.62514889240264893 0.51686114072799683 0.31970351934432983
