Daniel Vartanian/Galaxy Book2 Webcam - Nighttime - 1.cube
# Created by: G'MIC (https://gmic.eu)
TITLE "Galaxy Book2 Webcam - Nighttime - 1"
# LUT size
LUT_3D_SIZE 5
# Data domain
# LUT data points
DOMAIN_MIN 0.000000 0.000000 0.000000
DOMAIN_MAX 0.903226 0.903226 0.903226
0.078639879822731018 0.0555279441177845 0.086031824350357056
0.44756102561950684 0.10229118168354034 0.081022143363952637
0.63321715593338013 0.20994924008846283 0.22627206146717072
0.77001363039016724 0.30042156577110291 0.26379144191741943
0.84905886650085449 0.32443791627883911 0.2678314745426178
0.28116616606712341 0.32841029763221741 0.26249867677688599
0.45700865983963013 0.35151958465576172 0.19054560363292694
0.65212589502334595 0.35592460632324219 0.18058440089225769
0.82280981540679932 0.36853063106536865 0.28855973482131958
0.87964248657226562 0.40805557370185852 0.30698063969612122
0.36688309907913208 0.49586614966392517 0.35912162065505981
0.4626496434211731 0.54043084383010864 0.38523989915847778
0.65080797672271729 0.57371681928634644 0.35446673631668091
0.81651544570922852 0.60017192363739014 0.32255372405052185
0.9367372989654541 0.5798410177230835 0.40668302774429321
0.38379243016242981 0.61075705289840698 0.3872065544128418
0.5045628547668457 0.64480686187744141 0.41116631031036377
0.66710078716278076 0.68501824140548706 0.40145853161811829
0.81268090009689331 0.72593396902084351 0.40452656149864197
0.9458467960357666 0.74790078401565552 0.43725520372390747
0.38226217031478882 0.7134355902671814 0.37321239709854126
0.51170694828033447 0.73263067007064819 0.38713741302490234
0.66738617420196533 0.77285701036453247 0.40261673927307129
0.80265969038009644 0.79178380966186523 0.41278889775276184
0.96147912740707397 0.81396335363388062 0.44183158874511719
0.20727740228176117 0.16188560426235199 0.45883041620254517
0.43755641579627991 0.22073869407176971 0.46416142582893372
0.62186604738235474 0.27274662256240845 0.43945389986038208
0.77141112089157104 0.32779592275619507 0.42659282684326172
0.87690776586532593 0.37354934215545654 0.42644312977790833
0.30460461974143982 0.34781062602996826 0.47371020913124084
0.45134958624839783 0.35703909397125244 0.49841144680976868
0.64777523279190063 0.36470288038253784 0.48960864543914795
0.81200569868087769 0.40621930360794067 0.46640938520431519
0.90610408782958984 0.46465986967086792 0.45803791284561157
0.37820875644683838 0.54444330930709839 0.4856661856174469
0.46220356225967407 0.59194505214691162 0.49589827656745911
0.64667129516601562 0.61000245809555054 0.49085381627082825
0.83656322956085205 0.60926777124404907 0.4948078989982605
0.98002713918685913 0.60216563940048218 0.50094616413116455
0.40269750356674194 0.63742524385452271 0.48418551683425903
0.51138430833816528 0.67254209518432617 0.51400852203369141
0.66656571626663208 0.72877854108810425 0.51432245969772339
0.83159458637237549 0.78696423768997192 0.50283777713775635
0.98192083835601807 0.78996425867080688 0.52964586019515991
0.40122997760772705 0.7287786602973938 0.47304710745811462
0.51493638753890991 0.74105095863342285 0.49529555439949036
0.67750424146652222 0.79091876745223999 0.50344324111938477
0.81037735939025879 0.81335043907165527 0.50727599859237671
0.97392988204956055 0.83104884624481201 0.54094082117080688
0.31213319301605225 0.29048418998718262 0.55576866865158081
0.44144946336746216 0.3134186863899231 0.57005780935287476
0.62465673685073853 0.34029564261436462 0.58466464281082153
0.7715725302696228 0.37208059430122375 0.56898027658462524
0.87907063961029053 0.37430810928344727 0.5522046685218811
0.35656329989433289 0.3936212956905365 0.59448122978210449
0.45595145225524902 0.42326709628105164 0.61506390571594238
0.64868468046188354 0.41999271512031555 0.62364369630813599
0.79759782552719116 0.45903241634368896 0.60765337944030762
0.88624101877212524 0.46383148431777954 0.56785303354263306
0.3979986310005188 0.54312556982040405 0.61003249883651733
0.47977325320243835 0.58262532949447632 0.63068926334381104
0.64862602949142456 0.61223119497299194 0.6757805347442627
0.80751639604568481 0.6265873908996582 0.65740334987640381
0.95940321683883667 0.65046548843383789 0.62147009372711182
0.4297906756401062 0.66697591543197632 0.59778708219528198
0.52370011806488037 0.69238543510437012 0.62985557317733765
0.6669386625289917 0.75989127159118652 0.65069735050201416
0.82964849472045898 0.82198816537857056 0.67852014303207397
1 0.82943564653396606 0.67296451330184937
0.41231563687324524 0.74425661563873291 0.59087598323822021
0.52399498224258423 0.75342249870300293 0.60271525382995605
0.68985527753829956 0.80764567852020264 0.63476276397705078
0.83302211761474609 0.86267697811126709 0.66841810941696167
0.97271996736526489 0.91529554128646851 0.67432320117950439
0.31773370504379272 0.33987632393836975 0.63094437122344971
0.43439462780952454 0.35148072242736816 0.6329953670501709
0.62317150831222534 0.38612842559814453 0.65880793333053589
0.76413929462432861 0.41716459393501282 0.676483154296875
0.8701164722442627 0.41430091857910156 0.67388761043548584
0.3515113890171051 0.43921253085136414 0.64618128538131714
0.4606417715549469 0.44710633158683777 0.64670181274414062
0.64410889148712158 0.49406391382217407 0.67572307586669922
0.7738044261932373 0.54407131671905518 0.70772331953048706
0.87527894973754883 0.54488599300384521 0.70235306024551392
0.36835291981697083 0.52864044904708862 0.64520859718322754
0.47210776805877686 0.57507073879241943 0.65940308570861816
0.67461472749710083 0.61697328090667725 0.71721434593200684
0.81114530563354492 0.68022638559341431 0.77588772773742676
0.89973664283752441 0.71066570281982422 0.76741057634353638
0.42862036824226379 0.67804974317550659 0.66168808937072754
0.54501324892044067 0.70124721527099609 0.68196576833724976
0.70974838733673096 0.75806814432144165 0.7471470832824707
0.84058862924575806 0.82241559028625488 0.84629857540130615
0.95619291067123413 0.85384809970855713 0.80818861722946167
0.42022010684013367 0.76070278882980347 0.66815686225891113
0.56135600805282593 0.7821120023727417 0.69521808624267578
0.73750394582748413 0.84021812677383423 0.76303303241729736
0.87896472215652466 0.9131048321723938 0.81955480575561523
0.99184608459472656 0.98842185735702515 0.84570127725601196
0.29805839061737061 0.33240672945976257 0.71911787986755371
0.42114335298538208 0.33208504319190979 0.71080297231674194
0.61915040016174316 0.38508749008178711 0.74790912866592407
0.7576369047164917 0.44902187585830688 0.79072600603103638
0.88545876741409302 0.48489871621131897 0.82943254709243774
0.31418755650520325 0.41956004500389099 0.71161401271820068
0.44707062840461731 0.43396186828613281 0.71396410465240479
0.64907956123352051 0.5070769190788269 0.75626635551452637
0.77888721227645874 0.57657516002655029 0.80099773406982422
0.89088708162307739 0.62517029047012329 0.84281378984451294
0.32781127095222473 0.51782512664794922 0.70895093679428101
0.46693313121795654 0.55749392509460449 0.72420907020568848
0.69058382511138916 0.62735700607299805 0.78571081161499023
0.82626807689666748 0.69505596160888672 0.83203881978988647
0.89276903867721558 0.72345149517059326 0.84990906715393066
0.38841670751571655 0.67115598917007446 0.7285388708114624
0.53492408990859985 0.70122021436691284 0.74744290113449097
0.72861087322235107 0.7705039381980896 0.81094545125961304
0.86666661500930786 0.83234721422195435 0.86438095569610596
0.93151402473449707 0.86589545011520386 0.87983947992324829
0.4315076470375061 0.7958606481552124 0.76591765880584717
0.60739248991012573 0.83189254999160767 0.79648798704147339
0.77518308162689209 0.88670212030410767 0.84123152494430542
0.90373843908309937 0.936137855052948 0.88052600622177124
0.9887840747833252 0.98552906513214111 0.92186856269836426
